X: 45
T:Jysk fynsk
M:2/4
L:1/8
S:Levy Wilsen, Laeso, Denmark
K:D
(3AAA FA|FA df|(3eee cA|1df a2:|2df d2|!
aa/2a/2 ag|fe d>f|1e cA|1df a2:|2dfd2||
